X:117
T:Rose in the Heather
M:6/8
L:1/8
R:jig
K:D
G|FAF EFE|DFA BAF|dcd ede|fdB AFE|
FAF EFE|DFA BAF|BdB AFE|FDD D2:|
g|fdB ABd|faa afd|gfg fed|Bee efg|
fdB ABd|faa afa|baf gfe|fdd d2:|
